svg/24/image-check--filled.svg

<svg width="24" height="24" viewBox="0 0 24 24" fill="currentColor" xmlns="http://www.w3.org/2000/svg"><path d="M3 5C3 3.89543 3.89543 3 5 3H19C20.1046 3 21 3.89543 21 5V12.0218C20.5368 11.7253 20.0335 11.4858 19.5 11.3135V5C19.5 4.72386 19.2761 4.5 19 4.5H5C4.72386 4.5 4.5 4.72386 4.5 5V14.4393L8.46967 10.4697C8.76256 10.1768 9.23744 10.1768 9.53033 10.4697L12.4581 13.3974C11.5465 14.5163 11 15.9443 11 17.5C11 18.7886 11.375 19.9897 12.0218 21H5C3.89543 21 3 20.1046 3 19V5Z"/><path d="M15.5 11C16.8807 11 18 9.88071 18 8.5C18 7.11929 16.8807 6 15.5 6C14.1193 6 13 7.11929 13 8.5C13 9.88071 14.1193 11 15.5 11Z"/><path fill-rule="evenodd" clip-rule="evenodd" d="M17.5 23C20.5376 23 23 20.5376 23 17.5C23 14.4624 20.5376 12 17.5 12C14.4624 12 12 14.4624 12 17.5C12 20.5376 14.4624 23 17.5 23ZM20.3536 16.3536C20.5488 16.1583 20.5488 15.8417 20.3536 15.6464C20.1583 15.4512 19.8417 15.4512 19.6464 15.6464L16.5 18.7929L14.8536 17.1464C14.6583 16.9512 14.3417 16.9512 14.1464 17.1464C13.9512 17.3417 13.9512 17.6583 14.1464 17.8536L16.1464 19.8536C16.2402 19.9473 16.3674 20 16.5 20C16.6326 20 16.7598 19.9473 16.8536 19.8536L20.3536 16.3536Z"/></svg>

<svg xmlns="http://www.w3.org/2000/svg" width="24" height="24" fill="currentColor" viewBox="0 0 24 24">
  <path d="M3 5a2 2 0 0 1 2-2h14a2 2 0 0 1 2 2v7.022a6.471 6.471 0 0 0-1.5-.709V5a.5.5 0 0 0-.5-.5H5a.5.5 0 0 0-.5.5v9.44l3.97-3.97a.75.75 0 0 1 1.06 0l2.928 2.927A6.473 6.473 0 0 0 11 17.5a6.47 6.47 0 0 0 1.022 3.5H5a2 2 0 0 1-2-2V5Z"/>
  <path d="M15.5 11a2.5 2.5 0 1 0 0-5 2.5 2.5 0 0 0 0 5Z"/>
  <path fill-rule="evenodd" d="M17.5 23a5.5 5.5 0 1 0 0-11 5.5 5.5 0 0 0 0 11Zm2.854-6.646a.5.5 0 0 0-.708-.708L16.5 18.793l-1.646-1.647a.5.5 0 0 0-.708.708l2 2a.5.5 0 0 0 .708 0l3.5-3.5Z" clip-rule="evenodd"/>
</svg>
